!!!COM: Claude Goudimel
!!!OMD: Psalm 89: Du Seigneur les bontez, sans fin
**kern	**kern	**kern	**kern
*part4	*part3	*part2	*part1
*staff4	*staff3	*staff2	*staff1
*I"bassus	*I"tenor	*I"contra	*I"superius
*clefF3	*clefC3	*clefC2	*clefG2
!!LO:TX:omd:t=
*M2/2	*M2/2	*M2/2	*M2/2
*met(c|)	*met(c|)	*met(c|)	*met(c|)
=1	=1	=1	=1
1C	1c	1e	1g
=2	=2	=2	=2
2D	2A	2d	2f
2E	2G	2B	2e
=3	=3	=3	=3
2F	2c	2A	2a
2D	2d	2A	2f
=4	=4	=4	=4
1C	1e	1c	1g
=5	=5	=5	=5
1C	1e	1g	1cc
=6	=6	=6	=6
2C	2g	2e	2ee
2D	2f	2a	[2dd
=7	=7	=7	=7
1E	1e	1g	4dd]
.	.	.	4cc
.	.	.	[2cc
=8	=8	=8	=8
1G	1d	1g	2cc]
.	.	.	2b
=9	=9	=9	=9
1C	1c	1g	1cc
=10	=10	=10	=10
1r	1r	1r	1r
=11	=11	=11	=11
1C	1c	1e	1g
=12	=12	=12	=12
2D	2A	2d	2f
2E	2G	2B	2e
=13	=13	=13	=13
2F	2c	2A	2a
2D	2d	2A	2f
=14	=14	=14	=14
1C	1e	1c	1g
=15	=15	=15	=15
1C	1e	1g	1cc
=16	=16	=16	=16
2C	2g	2e	2ee
2D	2f	2a	[2dd
=17	=17	=17	=17
1E	1e	1g	4dd]
.	.	.	4cc
.	.	.	[2cc
=18	=18	=18	=18
1G	1d	1g	2cc]
.	.	.	2b
=19	=19	=19	=19
1C	1c	1g	1cc
=20	=20	=20	=20
1r	1r	1r	1r
=21	=21	=21	=21
1c	1e	1g	1cc
=22	=22	=22	=22
2c	2e	2g	2cc
2G	2d	2g	2b
=23	=23	=23	=23
2A	2c	2e	2a
2D	2f	2a	2dd
=24	=24	=24	=24
1E	1e	1g	1b
=25	=25	=25	=25
1A	1c	1e	1a
=26	=26	=26	=26
2G	2d	2g	2b
2G	2B	2d	2g
=27	=27	=27	=27
2F	2c	2f	2a
2G	2B	2d	[2g
=28	=28	=28	=28
1D	1A	1d	2g]
.	.	.	2f#X
=29	=29	=29	=29
1G	1G	1d	1g
=30	=30	=30	=30
1r	1r	1r	1r
=31	=31	=31	=31
1G	1G	1B	1d
=32	=32	=32	=32
2F	2A	2c	2f
2A	2c	2c	2e
=33	=33	=33	=33
2G	2c	2d	2g
2G	2B	2d	2g
=34	=34	=34	=34
1C	1c	1e	1g
=35	=35	=35	=35
1C	1G	1c	1e
=36	=36	=36	=36
2C	2c	2e	2g
2G	2d	2g	2b
=37	=37	=37	=37
2E	2e	2g	2b
2F	2c	2f	2a
=38	=38	=38	=38
1F	1f	1a	1cc
=39	=39	=39	=39
1C	1e	1g	1cc
=40	=40	=40	=40
1r	1r	1r	1r
=41	=41	=41	=41
1C	1g	1e	1cc
=42	=42	=42	=42
2F	2f	2c	2a
2C	2e	2g	2cc
=43	=43	=43	=43
2G	2d	2g	2cc
2G	2d	2g	2b
=44	=44	=44	=44
1A	1c	1e	1cc
=45	=45	=45	=45
1F	1f	1a	1cc
=46	=46	=46	=46
2C	2e	2g	2cc
2D	2d	2f	2b
=47	=47	=47	=47
2F	2c	2f	2a
2G	2B	2d	[2g
=48	=48	=48	=48
1D	1A	1d	2g]
.	.	.	2f#X
=49	=49	=49	=49
1G	1G	1d	1g
=50	=50	=50	=50
1r	1r	1r	1r
=51	=51	=51	=51
1G	1d	1B	1g
=52	=52	=52	=52
2C	2e	2c	2g
2G	[2d	2B	2g
=53	=53	=53	=53
1A	2d]	1c	1e
.	[2c	.	.
=54	=54	=54	=54
1G	2c]	1d	1g
.	2B	.	.
=55	=55	=55	=55
1C	1c	1e	1g
=56	=56	=56	=56
1G	1d	1g	1b
=57	=57	=57	=57
2c	2e	2g	2cc
2c	2g	2e	2ee
=58	=58	=58	=58
2F	2f	2a	2dd
2C	2e	2g	[2cc
=59	=59	=59	=59
1G	1d	1g	2cc]
.	.	.	2b
=60	=60	=60	=60
1C;	1c;	1g;	1cc;
==	==	==	==
*-	*-	*-	*-
!!!software: music21 v.9.7.1
!!!software: music21 v.8.3.0
!!!RDF**kern: > = above
!!!RDF**kern: < = below
